icons/child_care.svg

<svg width="48" height="48" viewBox="0 0 48 48" fill="none" xmlns="http://www.w3.org/2000/svg">
<path fill-rule="evenodd" clip-rule="evenodd" d="M17.6575 29.0079C17.354 29.0255 17.1841 29.0695 17.12 29.0987C16.4865 29.3875 14.4052 30.143 13 30.646L13 37.7469C13.7204 37.7128 14.5304 37.6847 14.9854 37.703C17.0067 37.7844 18.534 38.255 19.9613 38.7082C20.0033 38.7215 20.0452 38.7348 20.087 38.7481C21.465 39.186 22.751 39.5946 24.4424 39.7228C24.9607 39.7621 25.4137 39.8082 25.8382 39.8513C26.3635 39.9048 26.8451 39.9538 27.3529 39.98C28.2126 40.0243 28.8727 39.9766 29.4067 39.781C30.0662 39.5393 32.4463 38.4259 34.8373 37.213C36.021 36.6126 37.1835 35.9998 38.1094 35.4745C38.573 35.2115 38.9683 34.9755 39.2736 34.7775C39.6011 34.5651 39.7586 34.4383 39.8022 34.3935C39.9803 34.2108 40.1069 33.7055 39.8741 33.251C39.7116 32.9338 39.2596 32.4697 37.9896 32.6799C36.5204 32.9229 34.7721 33.6397 33.0551 34.3441C32.2217 34.686 31.3931 35.0251 30.6595 35.2701C29.9565 35.5049 29.2006 35.7041 28.5515 35.6649C27.6117 35.6082 25.9555 35.36 24.5813 35.136C23.884 35.0224 23.2425 34.9122 22.7756 34.8304C22.542 34.7895 22.3518 34.7557 22.2199 34.732L22.0674 34.7046L22.0142 34.695L22.1926 33.711L22.0132 34.6948L22.2047 32.7111L27.5657 32.7759C27.5699 32.7757 27.577 32.7753 27.5868 32.7744C27.6226 32.7712 27.6953 32.7619 27.7985 32.7351C28.0026 32.6821 28.3387 32.5577 28.7552 32.2601C28.8991 32.1574 29.0744 31.978 29.2339 31.746C29.3647 31.5559 29.4612 31.365 29.5182 31.2032C28.7191 31.1804 27.9354 31.0457 27.3502 30.918C27.0249 30.847 26.7511 30.776 26.557 30.7222C26.4598 30.6952 26.3822 30.6725 26.3276 30.6561C26.3102 30.6508 26.2951 30.6463 26.2825 30.6424L19.7161 29.1691L19.7139 29.1687C19.6999 29.1662 19.678 29.1624 19.6492 29.1575C19.5915 29.1478 19.5063 29.134 19.4004 29.1186C19.1875 29.0877 18.8969 29.0509 18.5823 29.0265C18.2646 29.0019 17.9411 28.9915 17.6575 29.0079ZM19.9148 28.1888L20.0982 27.2057L20.116 27.2091L26.8037 28.7096L26.8454 28.723L26.8568 28.7266L26.903 28.7406C26.945 28.7533 27.0089 28.772 27.0913 28.7948C27.2564 28.8406 27.4937 28.9023 27.7767 28.964C28.3514 29.0895 29.0754 29.2065 29.7506 29.2065C30.3746 29.2065 31.0198 29.4391 31.3649 30.0709C31.6611 30.6135 31.5921 31.2091 31.4812 31.6216C31.3431 32.1349 31.0572 32.6752 30.6937 33.1342C31.1842 32.9491 31.7203 32.7299 32.2959 32.4938C32.3368 32.477 32.3778 32.4602 32.419 32.4433C34.0418 31.7772 35.9659 30.9875 37.6631 30.7067C39.6027 30.3858 41.0143 31.0899 41.6542 32.3391C42.2237 33.451 42.0915 34.9103 41.2343 35.7896C41.0191 36.0103 40.6912 36.2419 40.362 36.4555C40.0104 36.6835 39.5774 36.9412 39.0963 37.2141C38.1327 37.7608 36.9397 38.3891 35.7421 38.9967C33.3706 40.1997 30.8845 41.3695 30.0946 41.6589C29.1791 41.9943 28.1957 42.026 27.25 41.9773C26.7349 41.9508 26.1365 41.8913 25.5417 41.8321C25.112 41.7894 24.6843 41.7469 24.2913 41.7171C22.3638 41.571 20.8844 41.1005 19.5217 40.667C19.4663 40.6494 19.4111 40.6319 19.3561 40.6144C17.9487 40.1675 16.6395 39.7713 14.9049 39.7014C14.3144 39.6776 12.8475 39.7537 12.0584 39.7998L11 39.8618L11 29.2354L11.6648 28.9989C13.0201 28.5167 15.6471 27.5721 16.2904 27.2789C16.6923 27.0957 17.1565 27.0335 17.5422 27.0113C17.9478 26.9878 18.3684 27.004 18.7366 27.0325C19.108 27.0612 19.445 27.1041 19.6883 27.1395C19.8106 27.1573 19.9105 27.1734 19.981 27.1852C20.0163 27.1912 20.0443 27.1961 20.0641 27.1996L20.0876 27.2038L20.0945 27.2051L20.0982 27.2057C20.0982 27.2057 20.0982 27.2057 19.9148 28.1888Z" fill="black"/>
<path fill-rule="evenodd" clip-rule="evenodd" d="M6 29.0007C6 27.8962 6.89543 27.0007 8 27.0007H11C12.1046 27.0007 13 27.8962 13 29.0007V39.9961C13 41.1006 12.1046 41.9961 11 41.9961H8C6.89543 41.9961 6 41.1006 6 39.9961V29.0007ZM8 29.0007V39.9961H11V29.0007H8Z" fill="black"/>
<path fill-rule="evenodd" clip-rule="evenodd" d="M19.2989 19.0785L19.3184 19.0586C19.5689 18.8067 19.5677 18.3994 19.3158 18.1489C19.0639 17.8984 18.6566 17.8996 18.4061 18.1515L16.4451 20.1236C16.0697 20.5012 15.5593 20.7134 15.0269 20.7134H12.4411C12.0859 20.7134 11.7979 21.0014 11.7979 21.3567C11.7979 21.712 12.0859 22 12.4411 22H15.2017C16.0147 22 16.7929 21.67 17.3582 21.0854L19.2989 19.0785ZM15.0269 18.7134H12.4411C10.9813 18.7134 9.79785 19.8969 9.79785 21.3567C9.79785 22.8166 10.9813 24 12.4411 24H15.2017C16.5568 24 17.8538 23.4499 18.7959 22.4757L20.7366 20.4688C21.7659 19.4336 21.7612 17.76 20.726 16.7307C19.6908 15.7013 18.0172 15.7061 16.9878 16.7413L15.0269 18.7134Z" fill="black"/>
<path fill-rule="evenodd" clip-rule="evenodd" d="M32.7409 12.9984C34.1212 12.9984 35.24 11.8795 35.24 10.4992C35.24 9.11895 34.1211 8 32.7409 8C31.3607 8 30.2417 9.11898 30.2417 10.4992C30.2417 11.8795 31.3606 12.9984 32.7409 12.9984ZM37.24 10.4992C37.24 12.9841 35.2257 14.9984 32.7409 14.9984C30.2561 14.9984 28.2417 12.9841 28.2417 10.4992C28.2417 8.01442 30.2561 6 32.7409 6C35.2257 6 37.24 8.01442 37.24 10.4992Z" fill="black"/>
<path fill-rule="evenodd" clip-rule="evenodd" d="M29.7179 23.294C29.7416 23.3184 29.7658 23.3422 29.7905 23.3655C29.9957 23.5587 30.2351 23.7126 30.4966 23.8192C30.7897 23.9386 31.1044 23.996 31.4206 23.9878C31.4342 23.9878 31.4469 23.9895 31.4596 23.9912C31.4723 23.9929 31.485 23.9946 31.4986 23.9946C31.9661 23.9946 33.3416 23.993 34.6357 23.9913C36.1073 23.9895 37.2989 22.7959 37.2989 21.3244C37.2989 19.8513 36.1045 18.6572 34.6314 18.6572H32.6754C32.4751 18.6572 31.0256 17.1301 29.9442 15.9598C29.174 15.1264 28.0946 14.6436 26.9598 14.6436H22.1041L22.5719 23.9946H25.6548C26.2788 23.9936 26.8963 23.8673 27.4705 23.6229C28.0446 23.3785 28.925 22.644 28.997 22.572C29.0652 22.5038 29.6515 23.2132 29.7127 23.2877C29.7161 23.2918 29.7179 23.294 29.7179 23.294ZM26.6858 21.7833C26.6858 21.7833 26.701 21.7764 26.7328 21.7589C26.7684 21.7393 26.814 21.7123 26.8693 21.6772C26.981 21.6063 27.1059 21.5189 27.2305 21.4265C27.3535 21.3353 27.4643 21.2479 27.5456 21.1817C27.5862 21.1486 27.6162 21.1235 27.634 21.1082C28.3142 20.4713 29.1194 20.545 29.4349 20.6124C29.7622 20.6824 29.995 20.8177 30.0797 20.8687C30.276 20.9867 30.4235 21.1185 30.4831 21.1726C30.6308 21.3064 30.773 21.4596 30.8684 21.5652C30.9742 21.6823 31.073 21.7974 31.1429 21.8801C31.1573 21.8971 31.1706 21.913 31.1829 21.9276C31.2036 21.9437 31.2266 21.957 31.2513 21.9671M26.6858 21.7833C26.3593 21.922 26.0081 21.9939 25.653 21.9946H24.4743L24.2066 16.6436H26.9598C27.5242 16.6436 28.0751 16.8841 28.4753 17.3171C29.02 17.9067 29.6714 18.6012 30.2186 19.1542C30.4886 19.427 30.7569 19.6894 30.9847 19.8927C31.0942 19.9903 31.2304 20.1069 31.3731 20.2101C31.4418 20.2597 31.5545 20.3375 31.6951 20.4112C31.6969 20.4121 31.699 20.4132 31.7013 20.4144C31.7834 20.4577 32.1615 20.6572 32.6754 20.6572H34.6314C35.0002 20.6572 35.2989 20.9562 35.2989 21.3244C35.2989 21.6928 35.0007 21.9909 34.6332 21.9913C33.4161 21.9929 32.1293 21.9944 31.5921 21.9945C31.5456 21.9909 31.4873 21.9878 31.4206 21.9878H31.3945L31.3685 21.9885C31.3286 21.9895 31.2885 21.9822 31.2513 21.9671" fill="black"/>
</svg>

<svg
  xmlns="http://www.w3.org/2000/svg"
  width="24"
  height="24"
  viewBox="0 0 24 24"
  fill="none"
  stroke="currentColor"
  stroke-width="2"
  stroke-linecap="round"
  stroke-linejoin="round"
>
  <path
    fill-rule="evenodd"
    d="M17.658 29.008c-.304.018-.474.062-.538.09-.634.29-2.715 1.045-4.12 1.548v7.1c.72-.033 1.53-.061 1.985-.043 2.022.081 3.549.552 4.976 1.005l.126.04c1.378.438 2.664.847 4.355.975.519.04.972.085 1.396.128a30 30 0 0 0 1.515.129c.86.044 1.52-.003 2.054-.199.66-.242 3.04-1.355 5.43-2.568a84 84 0 0 0 3.272-1.739 24 24 0 0 0 1.165-.696c.327-.213.485-.34.528-.384.178-.183.305-.688.072-1.143-.162-.317-.614-.781-1.884-.571-1.47.243-3.218.96-4.935 1.664-.833.342-1.662.681-2.395.926-.704.235-1.46.434-2.108.395-.94-.057-2.596-.305-3.97-.529a156 156 0 0 1-2.362-.404l-.153-.027-.053-.01.179-.984-.18.984.192-1.984 5.36.065q.007 0 .022-.002c.036-.003.108-.012.212-.039.204-.053.54-.177.956-.475.144-.103.32-.282.479-.514.13-.19.227-.381.284-.543-.799-.023-1.583-.157-2.168-.285a15 15 0 0 1-1.022-.262l-.046-.014-6.566-1.473h-.002a9 9 0 0 0-.314-.05c-.212-.031-.503-.068-.818-.093a7 7 0 0 0-.925-.018m2.257-.82.183-.982.018.003 6.688 1.5.041.014.012.004.046.014.188.054c.165.046.403.107.686.169.574.126 1.298.242 1.974.242.624 0 1.269.233 1.614.865.296.542.227 1.138.116 1.55-.138.514-.424 1.054-.787 1.513.49-.185 1.026-.404 1.602-.64l.123-.05c1.623-.667 3.547-1.457 5.244-1.737 1.94-.321 3.351.383 3.991 1.632.57 1.112.438 2.571-.42 3.45-.215.221-.543.453-.872.666a26 26 0 0 1-1.266.76 86 86 0 0 1-3.354 1.782c-2.371 1.203-4.857 2.373-5.647 2.662-.916.335-1.9.367-2.845.318a38 38 0 0 1-1.708-.145c-.43-.043-.858-.085-1.25-.115-1.928-.146-3.408-.617-4.77-1.05l-.166-.053c-1.407-.447-2.716-.843-4.451-.913-.59-.023-2.057.053-2.847.099L11 39.862V29.235l.665-.236c1.355-.482 3.982-1.427 4.625-1.72.402-.183.867-.245 1.252-.268a9 9 0 0 1 1.195.021 14 14 0 0 1 1.327.168l.024.004.006.001h.004z"
    clip-rule="evenodd"
  />
  <path
    fill-rule="evenodd"
    d="M6 29a2 2 0 0 1 2-2h3a2 2 0 0 1 2 2v10.996a2 2 0 0 1-2 2H8a2 2 0 0 1-2-2zm2 0v10.996h3V29.001z"
    clip-rule="evenodd"
  />
  <path
    fill-rule="evenodd"
    d="m19.299 19.079.02-.02a.643.643 0 0 0-.913-.908l-1.96 1.973a2 2 0 0 1-1.42.59h-2.585a.643.643 0 0 0 0 1.286h2.76a3 3 0 0 0 2.157-.915zm-4.272-.366H12.44a2.643 2.643 0 0 0 0 5.287h2.76a5 5 0 0 0 3.595-1.524l1.94-2.007a2.643 2.643 0 1 0-3.748-3.728z"
    clip-rule="evenodd"
  />
  <path
    fill-rule="evenodd"
    d="M32.74 12.998a2.5 2.5 0 1 0 0-4.998 2.5 2.5 0 0 0 0 4.998m4.5-2.499a4.5 4.5 0 1 1-8.998 0 4.5 4.5 0 0 1 8.998 0"
    clip-rule="evenodd"
  />
  <path
    fill-rule="evenodd"
    d="m29.718 23.294.073.072a2.3 2.3 0 0 0 1.63.622l.039.003q.018.004.039.004l3.137-.004a2.667 2.667 0 0 0-.005-5.334h-1.956c-.2 0-1.65-1.527-2.73-2.697a4.07 4.07 0 0 0-2.985-1.316h-4.856l.468 9.35h3.083a4.7 4.7 0 0 0 1.816-.371c.574-.245 1.454-.979 1.526-1.051.068-.068.654.641.716.716zm-3.032-1.51.047-.025q.053-.03.136-.082c.112-.07.237-.158.361-.25a9 9 0 0 0 .404-.319c.68-.637 1.485-.563 1.8-.496.328.07.561.206.646.257a2.6 2.6 0 0 1 .403.304c.148.133.29.287.385.392.106.117.205.232.275.315l.04.048a.3.3 0 0 0 .068.04m-4.565-.185c-.327.139-.678.21-1.033.212h-1.179l-.267-5.351h2.753c.564 0 1.115.24 1.515.673.545.59 1.196 1.284 1.744 1.837.27.273.538.535.766.739.11.097.245.214.388.317.069.05.181.127.322.201l.006.003c.082.044.46.243.974.243h1.956a.667.667 0 0 1 .002 1.334l-3.04.003a2 2 0 0 0-.172-.006h-.052a.3.3 0 0 1-.118-.02"
    clip-rule="evenodd"
  />
</svg>
